tools/download-figma-icons/icons/outlined-large/solar.svg

<svg width="64" height="64" viewBox="0 0 64 64" fill="none" xmlns="http://www.w3.org/2000/svg">
<path fill-rule="evenodd" clip-rule="evenodd" d="M31.9932 49.9931C22.0682 49.9931 13.9932 41.9181 13.9932 31.9931C13.9932 22.0681 22.0682 13.9931 31.9932 13.9931C41.9182 13.9931 49.9932 22.0681 49.9932 31.9931C49.9932 41.9181 41.9182 49.9931 31.9932 49.9931ZM62.4862 30.4931H52.9172C52.5852 25.8321 50.7342 21.5931 47.8462 18.2631L54.6152 11.4921C55.2012 10.9061 55.2012 9.95712 54.6152 9.37112C54.0292 8.78512 53.0802 8.78512 52.4942 9.37112L45.7242 16.1411C42.3932 13.2521 38.1552 11.4011 33.4932 11.0691V1.50012C33.4932 0.672122 32.8212 0.00012207 31.9932 0.00012207C31.1652 0.00012207 30.4932 0.672122 30.4932 1.50012V11.0691C25.8312 11.4011 21.5932 13.2521 18.2622 16.1411L11.4922 9.37112C10.9062 8.78512 9.95718 8.78512 9.37118 9.37112C8.78518 9.95712 8.78518 10.9061 9.37118 11.4921L16.1402 18.2631C13.2522 21.5931 11.4012 25.8321 11.0692 30.4931H1.50018C0.672183 30.4931 0.000183105 31.1651 0.000183105 31.9931C0.000183105 32.8211 0.672183 33.4931 1.50018 33.4931H11.0692C11.4012 38.1541 13.2522 42.3941 16.1412 45.7241L9.37118 52.4951C8.78518 53.0811 8.78518 54.0301 9.37118 54.6161C9.66418 54.9091 10.0482 55.0551 10.4312 55.0551C10.8152 55.0551 11.1992 54.9091 11.4922 54.6161L18.2632 47.8461C21.5932 50.7341 25.8322 52.5851 30.4932 52.9171V62.4861C30.4932 63.3141 31.1652 63.9861 31.9932 63.9861C32.8212 63.9861 33.4932 63.3141 33.4932 62.4861V52.9171C38.1542 52.5851 42.3932 50.7341 45.7232 47.8461L52.4942 54.6161C52.7872 54.9091 53.1712 55.0551 53.5552 55.0551C53.9382 55.0551 54.3222 54.9091 54.6152 54.6161C55.2012 54.0301 55.2012 53.0811 54.6152 52.4951L47.8452 45.7241C50.7342 42.3941 52.5852 38.1541 52.9172 33.4931H62.4862C63.3142 33.4931 63.9862 32.8211 63.9862 31.9931C63.9862 31.1651 63.3142 30.4931 62.4862 30.4931Z" fill="black"/>
</svg>

<svg width="64" height="64" viewBox="0 0 64 64" fill="none" xmlns="http://www.w3.org/2000/svg"><path fill-rule="evenodd" clip-rule="evenodd" d="M31.993 49.993c-9.925 0-18-8.075-18-18s8.075-18 18-18 18 8.075 18 18-8.075 18-18 18Zm30.493-19.5h-9.569a20.887 20.887 0 0 0-5.07-12.23l6.768-6.77a1.5 1.5 0 1 0-2.12-2.122l-6.77 6.77a20.884 20.884 0 0 0-12.232-5.072V1.5a1.5 1.5 0 0 0-3 0v9.57a20.884 20.884 0 0 0-12.23 5.071l-6.77-6.77a1.5 1.5 0 1 0-2.122 2.121l6.77 6.771a20.887 20.887 0 0 0-5.072 12.23H1.5a1.5 1.5 0 0 0 0 3h9.57a20.884 20.884 0 0 0 5.071 12.231l-6.77 6.771a1.5 1.5 0 1 0 2.121 2.121l6.771-6.77a20.887 20.887 0 0 0 12.23 5.071v9.57a1.5 1.5 0 0 0 3 0v-9.57a20.887 20.887 0 0 0 12.23-5.07l6.771 6.77c.293.292.677.438 1.061.438a1.5 1.5 0 0 0 1.06-2.56l-6.77-6.77a20.884 20.884 0 0 0 5.072-12.232h9.57a1.5 1.5 0 0 0 0-3Z" fill="currentColor"/></svg>
